governance/ui/src/components/Header/snx-header.svg

<svg width="29" height="22" viewBox="0 0 29 22" fill="none" xmlns="http://www.w3.org/2000/svg">
    <path
        d="M6.81239 5.58974C6.61525 5.36013 6.37254 5.24505 6.08372 5.24505H0.177C0.124536 5.24505 0.0816109 5.22814 0.0492845 5.19432C0.0164282 5.16106 0 5.12342 0 5.08306V1.03015C0 0.98979 0.0164282 0.952702 0.0492845 0.918887C0.0816109 0.885072 0.124536 0.868164 0.177 0.868164H6.41864C7.99362 0.868164 9.35239 1.52374 10.4944 2.83381L12.0106 4.71819L9.05721 8.38604L6.81239 5.58974ZM17.7207 2.81363C18.8627 1.51665 20.2278 0.868164 21.8161 0.868164H28.0381C28.0906 0.868164 28.1298 0.881799 28.1563 0.908524C28.1822 0.935794 28.1955 0.976154 28.1955 1.03015V5.08306C28.1955 5.12342 28.1822 5.16106 28.1563 5.19432C28.1298 5.22814 28.0906 5.24505 28.0381 5.24505H22.1314C21.8426 5.24505 21.5998 5.36013 21.4027 5.58974L17.0514 10.98L21.4223 16.4106C21.6195 16.6271 21.8553 16.7351 22.1314 16.7351H28.0381C28.0906 16.7351 28.1298 16.752 28.1563 16.7858C28.1822 16.8197 28.1955 16.8638 28.1955 16.9173V20.9702C28.1955 21.0106 28.1822 21.0482 28.1563 21.0815C28.1298 21.1153 28.0906 21.1322 28.0381 21.1322H21.8161C20.2278 21.1322 18.8691 20.4771 17.7403 19.1665L14.1176 14.668L10.4944 19.1665C9.35239 20.4771 7.98727 21.1322 6.39903 21.1322H0.177C0.124536 21.1322 0.0847905 21.1153 0.0588234 21.0815C0.0323264 21.0476 0.0196078 21.004 0.0196078 20.9495V16.8966C0.0196078 16.8562 0.0323264 16.8191 0.0588234 16.7853C0.0847905 16.7515 0.124536 16.7346 0.177 16.7346H6.08372C6.35929 16.7346 6.602 16.62 6.81239 16.3899L11.0848 11.0809L17.7207 2.81363Z"
        fill="#2ED9FF" />
</svg>

<svg width="29" height="22" fill="none" viewBox="0 0 29 22" xmlns="http://www.w3.org/2000/svg">
  <path fill="#2ED9FF" d="M6.812 5.59a.92.92 0 0 0-.728-.345H.177a.17.17 0 0 1-.128-.05A.16.16 0 0 1 0 5.082V1.03Q0 .97.05.92A.17.17 0 0 1 .177.87h6.242q2.362 0 4.075 1.965l1.517 1.884-2.954 3.668zm10.909-2.776Q19.434.868 21.816.868h6.222q.08 0 .118.04.04.041.04.122v4.053q0 .06-.04.111-.039.051-.118.051h-5.907a.92.92 0 0 0-.728.345l-4.352 5.39 4.371 5.43a.93.93 0 0 0 .71.325h5.906q.08 0 .118.05.04.052.04.132v4.053q0 .06-.04.111-.039.051-.118.051h-6.222q-2.382 0-4.076-1.966l-3.622-4.498-3.624 4.499Q8.781 21.132 6.4 21.132H.177q-.078 0-.118-.05a.2.2 0 0 1-.04-.133v-4.052q0-.06.04-.112.04-.05.118-.05h5.907q.413 0 .728-.345l4.273-5.31z"/>
</svg>
